X: 1597
T: Jim Napier's Schottische
B: australian traditional tunes wiki
M:4/4
L:1/8
R: Schottische
Q: 1/4=100
K:D
V:1 
|:"D"(3dAF D2(3dAF D>A|"G"B<d c>B "A7"A2G2|"D"F>A A>G F>A A>F|[1"E7"E>E E>F "A7"E2A2:|2"A7"E>G F>E "D"D2 (3DFA||
|:"D"d2d2 "A7"c2B2|"G"B>c d>B "A7"A2G2|"D"F>A A>G F>A A>F|1"E7"E>E E>F "A7"E2A2:|2"A7"(3GGG F>E "D"D4||
% abcbook-tune_id 6342d53ab81d52a837b066f4


% abcbook-boost 0
% abcbook-tablature 
% abcbook-transpose 
% abcbook-lastupdated 1665324373150
% abcbook-soundfonts 
% abcbook-repeats 1
% NFF Book 2009

